public/assets/img/arrow-menu.svg

<svg width="24" height="24" viewBox="0 0 24 24" fill="none" xmlns="http://www.w3.org/2000/svg">
<path d="M16.6875 11.9959C16.6875 12.3486 16.548 12.6522 16.2773 12.9229L9.97732 19.067C9.76404 19.2803 9.50154 19.3951 9.18982 19.3951C8.54998 19.3951 8.04138 18.8865 8.04138 18.2549C8.04138 17.9432 8.16443 17.6479 8.39412 17.4182L13.9722 12.0041L8.39412 6.58184C8.17263 6.35215 8.04138 6.06505 8.04138 5.74512C8.04138 5.11348 8.54998 4.60489 9.18982 4.60489C9.50154 4.60489 9.76404 4.71973 9.98552 4.93301L16.2773 11.0772C16.5562 11.3643 16.6875 11.6514 16.6875 11.9959Z" fill="#141029" fill-opacity="0.4"/>
</svg>

<svg width="24" height="24" fill="none" xmlns="http://www.w3.org/2000/svg"><path d="M16.688 11.996c0 .353-.14.656-.41.927l-6.3 6.144a1.077 1.077 0 0 1-.788.328 1.14 1.14 0 0 1-1.149-1.14c0-.312.123-.607.353-.837l5.578-5.414-5.578-5.422a1.194 1.194 0 0 1-.353-.837c0-.632.509-1.14 1.149-1.14.312 0 .574.115.796.328l6.291 6.144c.28.287.41.574.41.919Z" fill="#141029" fill-opacity=".4"/></svg>
